starter-code/public/images/react-logo.svg

<?xml version="1.0" encoding="UTF-8"?>
<svg width="310px" height="272px" viewBox="0 0 310 272" version="1.1" xmlns="http://www.w3.org/2000/svg" xmlns:xlink="http://www.w3.org/1999/xlink">
    <!-- Generator: Sketch 51.1 (57501) - http://www.bohemiancoding.com/sketch -->
    <title>react copy 5</title>
    <desc>Created with Sketch.</desc>
    <defs></defs>
    <g id="Page-1" stroke="none" stroke-width="1" fill="none" fill-rule="evenodd" fill-opacity="0.0872678895">
        <g id="Desktop-Copy" transform="translate(-549.000000, -37.000000)" fill="#131723" fill-rule="nonzero">
            <g id="react-copy-5" transform="translate(549.000000, 37.000000)">
                <g id="Group">
                    <path d="M249.922798,206.759301 C249.17306,201.74504 248.182557,196.580775 246.957526,191.300116 C245.875333,186.663045 244.617869,181.934477 243.190746,177.134953 C239.43644,164.530834 234.490162,151.432509 228.494126,138.191027 C225.867547,132.402468 223.038875,126.58839 220.021209,120.780537 C217.362194,115.662331 214.55972,110.537278 211.606923,105.444592 C208.660987,100.345681 205.623985,95.3637863 202.502154,90.5057543 C198.976138,84.9972874 195.345957,79.6512737 191.630947,74.4870083 C183.144931,62.6827062 174.249116,51.8543675 165.183019,42.3063584 C161.735595,38.6707703 158.261349,35.2237771 154.774629,31.9784499 C150.805756,28.2712829 146.816923,24.8311364 142.834327,21.6766833 C116.836118,1.07937439 93.5624158,-5.10566908 77.2883514,4.26619362 C61.014287,13.6442806 54.7444279,36.8495529 59.6195989,69.6221295 C60.3624762,74.6363904 61.3598404,79.8006559 62.5917317,85.0813149 C63.6608263,89.7183858 64.9182911,94.4469533 66.352275,99.2464774 C70.1065808,111.850596 75.0528585,124.955768 81.0557558,138.190404 C83.6760979,143.978962 86.5041462,149.786194 89.5218122,155.594047 C92.1808263,160.7191 94.9901623,165.837306 97.9360979,170.936216 C100.882034,176.035127 103.919036,181.017022 107.040867,185.875054 C110.57312,191.390368 114.203301,196.736381 117.912074,201.900024 C126.39809,213.704326 135.293905,224.526441 144.360001,234.073827 C147.80805,237.709416 151.287909,241.162633 154.774629,244.40796 C158.743502,248.115127 162.732335,251.549049 166.70807,254.703503 C176.269418,262.28029 185.459015,267.905773 194.068533,271.515841 C214.481128,266.364647 233.330001,257.285946 249.760001,245.136821 C252.053502,234.588573 252.138331,221.665773 249.922798,206.759301 Z M235.284186,242.770358 C233.387386,250.952143 229.900665,256.558331 224.915092,259.426468 C219.935756,262.30083 213.327205,262.509342 205.277808,260.063832 C196.557265,257.403585 186.377164,251.589507 175.832174,243.232198 C172.286822,240.422569 168.734609,237.365837 165.182396,234.081297 C161.701913,230.855265 158.22143,227.408271 154.767768,223.759612 C148.836601,217.496766 142.970927,210.64137 137.248714,203.286166 C133.429539,198.37585 129.668995,193.244573 125.999518,187.917855 C120.674629,180.19791 115.532496,172.068409 110.644227,163.613379 C105.74972,155.158349 101.265635,146.651658 97.2312689,138.190404 C94.4418927,132.356409 91.8670838,126.542331 89.5211884,120.786761 C85.9951723,112.163054 82.9775064,103.662587 80.5074862,95.4092234 C79.0735023,90.5966284 77.8160375,85.8749076 76.766279,81.2509076 C75.6840858,76.5422577 74.804609,71.9375529 74.1396995,67.4697817 C72.1586935,54.1828618 72.2042267,42.4762806 74.2569631,33.6116948 C76.1537639,25.4299099 79.6467216,19.8237222 84.6260577,16.9555849 C87.3175064,15.4076124 90.4786331,14.6270906 94.082617,14.6270906 C97.1589148,14.6270906 100.560806,15.1928755 104.262718,16.3244453 C112.983261,18.9778458 123.163361,24.7987703 133.708351,33.1498549 C137.253704,35.9594842 140.812154,39.0162165 144.35813,42.3138275 C147.84485,45.5330128 151.319096,48.980006 154.76652,52.6224408 C160.703925,58.8852874 166.569599,65.7406833 172.298673,73.1027337 C176.117848,78.0130495 179.878392,83.1443263 183.547869,88.4710449 C188.865897,96.19099 194.008653,104.320491 198.896299,112.768674 C203.790806,121.223704 208.274891,129.730395 212.309257,138.191649 C215.098633,144.031869 217.673442,149.846569 220.019337,155.602139 C223.545353,164.225846 226.563019,172.720088 229.03304,180.97283 C230.467023,185.785425 231.724488,190.507146 232.780484,195.131146 C233.855816,199.839795 234.735917,204.4445 235.400826,208.912271 C237.38308,222.199191 237.337547,233.905773 235.284186,242.770358 Z" id="Shape"></path>
                    <path d="M262.054789,90.3774462 C257.329316,88.5176384 252.34998,86.7941419 247.149215,85.2069565 C242.587163,83.8214371 237.855453,82.5404851 232.973421,81.3765492 C220.159879,78.3198169 206.317163,76.0436064 191.828873,74.6126499 C185.500382,73.9815103 179.041529,73.5202929 172.497847,73.2271304 C166.723239,72.9607323 160.870664,72.8237986 154.972555,72.8237986 C149.074447,72.8237986 143.221247,72.9601098 137.440402,73.2271304 C130.890483,73.5196705 124.43163,73.988357 118.103139,74.6126499 C103.614849,76.0436064 89.7783702,78.3198169 76.964829,81.3765492 C72.0834205,82.5404851 67.3517103,83.8220595 62.7890342,85.2069565 C57.5882696,86.7872952 52.6089336,88.5176384 47.8834608,90.3774462 C17.0107042,102.539021 0,119.566096 0,138.316046 C0,157.065995 17.0107042,174.093071 47.8840845,186.261492 C52.6095573,188.1213 57.5820322,189.844796 62.7827968,191.431982 C67.3448491,192.817501 72.0765594,194.098453 76.9585915,195.256165 C89.7721328,198.319121 103.614849,200.589108 118.11,202.026288 C124.438491,202.650581 130.897344,203.112421 137.447264,203.411808 C143.221871,203.678206 149.074447,203.808293 154.972555,203.808293 C160.870664,203.808293 166.717002,203.678206 172.49161,203.411808 C179.041529,203.112421 185.494145,202.650581 191.828873,202.026288 C206.317163,200.595332 220.16674,198.319121 232.980282,195.256165 C237.86169,194.092229 242.5934,192.817501 247.156076,191.425757 C252.350604,189.845419 257.32994,188.121922 262.054789,186.261492 C292.934406,174.093071 309.938873,157.066618 309.938873,138.316046 C309.938249,119.566096 292.934406,102.539021 262.054789,90.3774462 Z M285.986539,155.602673 C279.325594,161.813858 269.184789,167.699515 256.664406,172.635973 C252.447907,174.294114 248.015594,175.842087 243.388048,177.259973 C238.845332,178.658563 234.120483,179.939515 229.232213,181.097227 C220.831026,183.093968 211.947686,184.732815 202.699457,186.001318 C196.533763,186.853419 190.205272,187.53622 183.746419,188.037272 C174.380926,188.785428 164.754708,189.162618 154.971932,189.162618 C145.189155,189.162618 135.562938,188.785428 126.197445,188.044119 C119.738592,187.536842 113.403863,186.854041 107.238169,186.001941 C97.9899396,184.733437 89.1065996,183.09459 80.7054125,181.097849 C75.8171429,179.940137 71.0922938,178.659185 66.5495775,177.260595 C61.9220322,175.842709 57.4903421,174.294737 53.2732193,172.636595 C40.7534608,167.700137 30.6120322,161.814481 23.9510865,155.603295 C17.7984909,149.873245 14.67666,144.059167 14.67666,138.316668 C14.67666,132.574169 17.7984909,126.759469 23.9510865,121.030041 C30.6120322,114.818856 40.752837,108.933199 53.2732193,103.996741 C57.4897183,102.3386 61.9220322,100.790627 66.5495775,99.3727414 C71.0922938,97.974151 75.8171429,96.6931991 80.7054125,95.5354874 C89.1065996,93.538746 97.9899396,91.8998993 107.238169,90.6313959 C113.403863,89.7792952 119.738592,89.0964943 126.197445,88.5892174 C135.562938,87.8479085 145.189155,87.4707185 154.971932,87.4707185 C164.754708,87.4707185 174.380926,87.8479085 183.746419,88.5960641 C190.205272,89.0971167 196.533763,89.7799176 202.699457,90.6320183 C211.947686,91.9005217 220.831026,93.5393684 229.232213,95.5361098 C234.120483,96.6938215 238.845332,97.9747735 243.388048,99.3733638 C248.015594,100.791249 252.447284,102.339222 256.664406,103.997364 C269.184165,108.933822 279.325594,114.819478 285.986539,121.030664 C292.139135,126.760714 295.260966,132.574792 295.260966,138.317291 C295.260966,144.059167 292.139135,149.873245 285.986539,155.602673 Z" id="Shape"></path>
                    <path d="M232.253103,4.26619362 C215.979038,-5.10566908 192.705336,1.07937439 166.707127,21.6766833 C162.731393,24.8311364 158.74256,28.2712829 154.773686,31.9784499 C151.286966,35.2237771 147.806483,38.6769945 144.359059,42.3125826 C135.292962,51.8599694 126.397147,62.6820838 117.904894,74.4863858 C114.196745,79.6500289 110.56594,84.996665 107.040547,90.5051318 C103.918716,95.3631639 100.881714,100.345059 97.9357788,105.443969 C94.9898432,110.54288 92.181131,115.661086 89.5214931,120.786139 C86.5038271,126.593992 83.6751551,132.40807 81.0554368,138.189782 C75.0525394,151.431265 70.1062617,164.529589 66.3519559,177.133708 C64.917972,181.940079 63.6605072,186.668024 62.5845515,191.305095 C61.3595213,196.586377 60.3621571,201.743795 59.6192799,206.758056 C57.4031229,221.658303 57.4879519,234.581104 59.7820766,245.129974 C76.2127004,257.285324 95.0609499,266.364647 115.474169,271.515841 C124.083686,267.906395 133.273284,262.28029 142.834632,254.703503 C146.816604,251.549049 150.805437,248.108903 154.774934,244.40796 C158.261654,241.162633 161.7359,237.71564 165.183324,234.080052 C174.24256,224.532665 183.145236,213.703704 191.631252,201.899402 C195.339401,196.735136 198.970205,191.389123 202.502459,185.874432 C205.62429,181.0164 208.661292,176.034505 211.607228,170.935594 C214.559401,165.842908 217.361875,160.724702 220.021513,155.599649 C223.039179,149.791795 225.867851,143.977718 228.494431,138.189159 C234.490467,124.953901 239.437368,111.849352 243.19105,99.2452325 C244.618173,94.4457085 245.876262,89.717141 246.951594,85.08007 C248.183485,79.7987886 249.173988,74.6351456 249.923727,69.6208847 C254.797026,36.8495529 248.527791,13.6442806 232.253103,4.26619362 Z M229.033968,95.4092234 C226.563948,103.662587 223.546282,112.156207 220.020266,120.779914 C217.673747,126.535484 215.099562,132.350184 212.310185,138.190404 C208.275819,146.651658 203.791735,155.158349 198.897228,163.613379 C194.008958,172.061562 188.866825,180.191063 183.548797,187.911008 C179.873083,193.243951 176.112539,198.375228 172.293364,203.285544 C166.571151,210.64137 160.705477,217.496143 154.768073,223.75899 C151.320648,227.400802 147.846403,230.847795 144.359682,234.073827 C140.81433,237.364592 137.255879,240.421324 133.709904,243.230953 C123.164914,251.588262 112.984189,257.40234 104.26427,260.062587 C96.2154972,262.508098 89.6063221,262.299585 84.6269861,259.425223 C79.6476501,256.557086 76.1540686,250.950898 74.2578915,242.769114 C72.2051551,233.904528 72.1589982,222.197946 74.1406279,208.911027 C74.8055374,204.443255 75.6850143,199.838551 76.7603463,195.129901 C77.8163422,190.505901 79.073807,185.78418 80.5077909,180.971585 C82.977811,172.718221 85.995477,164.217754 89.5214931,155.594047 C91.8680122,149.838477 94.4421974,144.023777 97.2315736,138.190404 C101.26594,129.72915 105.750024,121.222459 110.644531,112.767429 C115.532801,104.3124 120.674934,96.1828984 125.999823,88.4629533 C129.6693,83.1362348 133.422982,78.0049579 137.242157,73.1014888 C142.971232,65.7394385 148.836906,58.884665 154.767449,52.6211959 C158.221735,48.9725369 161.702217,45.5255437 165.182077,42.3063584 C168.73429,39.0155941 172.285879,35.9588618 175.831855,33.1492325 C186.376845,24.7987703 196.55757,18.9778458 205.277489,16.3238229 C208.979401,15.1922531 212.381292,14.6264682 215.45759,14.6264682 C219.061574,14.6264682 222.228938,15.40699 224.914149,16.9549625 C229.899723,19.8230998 233.387067,25.4292874 235.283244,33.6110723 C237.33598,42.4756581 237.382137,54.1822394 235.400507,67.4691593 C234.735598,71.9369305 233.856121,76.5416353 232.773928,81.2502851 C231.725417,85.8742851 230.467328,90.596006 229.033968,95.4092234 Z" id="Shape"></path>
                    <ellipse id="Oval" cx="155.122254" cy="137.989272" rx="29.1262777" ry="29.0647872"></ellipse>
                </g>
            </g>
        </g>
    </g>
</svg>

<svg width="310" height="272" xmlns="http://www.w3.org/2000/svg"><g fill="#131723" fill-rule="nonzero" fill-opacity=".087"><path d="M249.923 206.76a198.278 198.278 0 00-2.965-15.46 245.607 245.607 0 00-3.767-14.165c-3.755-12.604-8.7-25.702-14.697-38.944a364.168 364.168 0 00-8.473-17.41 378.036 378.036 0 00-8.414-15.336 370.28 370.28 0 00-9.105-14.94 357.324 357.324 0 00-10.871-16.018c-8.486-11.804-17.382-22.633-26.448-32.18a235.221 235.221 0 00-10.408-10.329 193.965 193.965 0 00-11.94-10.301C116.835 1.079 93.561-5.106 77.287 4.267 61.014 13.643 54.744 36.85 59.62 69.621c.742 5.014 1.74 10.179 2.972 15.46a230.247 230.247 0 003.76 14.164c3.755 12.605 8.7 25.71 14.704 38.944a357.945 357.945 0 008.466 17.404 386.426 386.426 0 008.414 15.342 370.28 370.28 0 009.105 14.94 363.922 363.922 0 0010.871 16.024c8.486 11.804 17.382 22.626 26.448 32.174a235.844 235.844 0 0010.415 10.334 195.785 195.785 0 0011.933 10.296c9.561 7.576 18.751 13.202 27.36 16.812 20.413-5.151 39.262-14.23 55.692-26.38 2.294-10.547 2.378-23.47.163-38.377zm-14.639 36.01c-1.897 8.182-5.383 13.788-10.369 16.656-4.98 2.875-11.588 3.083-19.637.638-8.72-2.66-18.9-8.474-29.446-16.832a184.758 184.758 0 01-10.65-9.15 224.635 224.635 0 01-10.414-10.322c-5.931-6.263-11.797-13.119-17.52-20.474A329.723 329.723 0 01126 187.918a361.772 361.772 0 01-15.356-24.305 360.753 360.753 0 01-13.413-25.423 323.226 323.226 0 01-7.71-17.403c-3.526-8.624-6.543-17.124-9.014-25.378-1.433-4.812-2.691-9.534-3.74-14.158A179.855 179.855 0 0174.14 67.47c-1.981-13.287-1.936-24.994.117-33.858 1.897-8.182 5.39-13.788 10.37-16.656 2.69-1.548 5.852-2.329 9.456-2.329 3.076 0 6.478.566 10.18 1.697 8.72 2.654 18.9 8.475 29.445 16.826a178.1 178.1 0 0110.65 9.164 217.864 217.864 0 0110.409 10.308c5.937 6.263 11.803 13.119 17.532 20.48 3.819 4.911 7.58 10.042 11.249 15.369a365.834 365.834 0 0115.348 24.298 360.753 360.753 0 0113.413 25.423 325.6 325.6 0 017.71 17.41c3.526 8.624 6.544 17.118 9.014 25.37a225.461 225.461 0 013.747 14.16 183.138 183.138 0 012.62 13.78c1.983 13.287 1.938 24.994-.116 33.858z"/><path d="M262.055 90.377a200.754 200.754 0 00-14.906-5.17 241.71 241.71 0 00-14.176-3.83c-12.813-3.057-26.656-5.333-41.144-6.764a355.236 355.236 0 00-19.331-1.386 380.593 380.593 0 00-35.058 0c-6.55.293-13.008.761-19.337 1.386-14.488 1.43-28.325 3.707-41.138 6.764a242.466 242.466 0 00-14.176 3.83c-5.2 1.58-10.18 3.31-14.906 5.17C17.011 102.54 0 119.567 0 138.316c0 18.75 17.01 35.777 47.884 47.945a200.564 200.564 0 0014.899 5.171 236.954 236.954 0 0014.176 3.824c12.813 3.063 26.656 5.333 41.151 6.77a368.63 368.63 0 0019.337 1.386c5.775.266 11.627.396 17.526.396 5.898 0 11.744-.13 17.519-.396 6.55-.3 13.002-.761 19.337-1.386 14.488-1.43 28.338-3.707 41.151-6.77a237.18 237.18 0 0014.176-3.83 198.08 198.08 0 0014.899-5.165c30.88-12.168 47.884-29.194 47.884-47.945 0-18.75-17.005-35.777-47.884-47.939zm23.932 65.226c-6.661 6.21-16.802 12.097-29.323 17.033a181.967 181.967 0 01-13.276 4.624 222.084 222.084 0 01-14.156 3.837c-8.401 1.997-17.284 3.636-26.533 4.904a318.484 318.484 0 01-18.953 2.036 361.954 361.954 0 01-28.774 1.126 365.26 365.26 0 01-28.775-1.119 323.92 323.92 0 01-18.959-2.042c-9.248-1.269-18.131-2.907-26.533-4.904a222.084 222.084 0 01-14.155-3.837 182.07 182.07 0 01-13.277-4.624c-12.52-4.937-22.661-10.823-29.322-17.034-6.153-5.73-9.274-11.544-9.274-17.286 0-5.743 3.121-11.558 9.274-17.287 6.661-6.211 16.802-12.097 29.322-17.033a181.967 181.967 0 0113.277-4.624 222.084 222.084 0 0114.155-3.838c8.402-1.996 17.285-3.635 26.533-4.904a323.92 323.92 0 0118.96-2.042 365.26 365.26 0 0128.774-1.118c9.783 0 19.409.377 28.774 1.125a318.484 318.484 0 0118.953 2.036c9.249 1.269 18.132 2.907 26.533 4.904a222.084 222.084 0 0114.156 3.837 182.07 182.07 0 0113.276 4.624c12.52 4.937 22.662 10.822 29.323 17.034 6.152 5.73 9.274 11.544 9.274 17.286 0 5.742-3.122 11.556-9.274 17.286z"/><path d="M232.253 4.266c-16.274-9.372-39.548-3.187-65.546 17.41a195.935 195.935 0 00-11.933 10.302 235.504 235.504 0 00-10.415 10.335c-9.066 9.547-17.962 20.37-26.454 32.173a362.22 362.22 0 00-10.864 16.02 370.28 370.28 0 00-9.105 14.938 387.229 387.229 0 00-8.415 15.342 360.457 360.457 0 00-8.466 17.404c-6.002 13.241-10.949 26.34-14.703 38.944a236.944 236.944 0 00-3.767 14.171c-1.225 5.281-2.223 10.439-2.966 15.453-2.216 14.9-2.131 27.823.163 38.372 16.43 12.155 35.279 21.235 55.692 26.386 8.61-3.61 17.8-9.236 27.36-16.812a196.356 196.356 0 0011.94-10.296 235.221 235.221 0 0010.41-10.328c9.059-9.547 17.961-20.376 26.447-32.18a365.215 365.215 0 0010.871-16.026 370.28 370.28 0 009.105-14.938 374.98 374.98 0 008.415-15.336 364.17 364.17 0 008.472-17.41c5.996-13.236 10.943-26.34 14.697-38.945 1.427-4.8 2.685-9.528 3.76-14.165a195.28 195.28 0 002.973-15.46c4.873-32.77-1.396-55.976-17.67-65.354zm-3.219 91.143c-2.47 8.254-5.488 16.747-9.014 25.37a326.1 326.1 0 01-7.71 17.411 360.753 360.753 0 01-13.413 25.423 366.09 366.09 0 01-15.348 24.298 331.23 331.23 0 01-11.256 15.375c-5.722 7.355-11.588 14.21-17.525 20.473a221.63 221.63 0 01-10.408 10.315 180.063 180.063 0 01-10.65 9.157c-10.545 8.357-20.726 14.171-29.446 16.832-8.049 2.445-14.658 2.237-19.637-.638-4.98-2.868-8.473-8.474-10.37-16.656-2.052-8.864-2.098-20.571-.116-33.858a183.128 183.128 0 012.62-13.781 225.46 225.46 0 013.747-14.158c2.47-8.254 5.487-16.754 9.013-25.378a323.502 323.502 0 017.71-17.404 360.753 360.753 0 0113.414-25.423A361.772 361.772 0 01126 88.463a325.816 325.816 0 0111.242-15.362c5.73-7.362 11.595-14.216 17.525-20.48a221.653 221.653 0 0110.415-10.315 182.293 182.293 0 0110.65-9.157c10.545-8.35 20.726-14.171 29.445-16.825 3.702-1.132 7.104-1.698 10.18-1.698 3.605 0 6.772.781 9.457 2.329 4.986 2.868 8.473 8.474 10.37 16.656 2.052 8.865 2.098 20.571.117 33.858a179.855 179.855 0 01-2.627 13.781c-1.049 4.624-2.307 9.346-3.74 14.16z"/><ellipse cx="155.122" cy="137.989" rx="29.126" ry="29.065"/></g></svg>
